projects/vfh1/img/icons/vk.svg

<svg viewBox="0 0 31 19" fill="none" xmlns="http://www.w3.org/2000/svg">
<path fill="currentColor" fill-rule="evenodd" clip-rule="evenodd" d="M30.15 1.55492C30.3634 0.852917 30.15 0.33606 29.1279 0.33606H25.7529C24.894 0.33606 24.498 0.782202 24.2833 1.27463C24.2833 1.27463 22.5669 5.38377 20.1356 8.05292C19.3487 8.82692 18.9913 9.07249 18.5619 9.07249C18.3471 9.07249 18.0244 8.82692 18.0244 8.12363V1.55492C18.0244 0.711488 17.7879 0.33606 17.073 0.33606H11.7656C11.2294 0.33606 10.9067 0.726917 10.9067 1.09849C10.9067 1.89692 12.123 2.08206 12.2477 4.32949V9.21263C12.2477 10.2836 12.051 10.4778 11.6216 10.4778C10.4773 10.4778 7.69371 6.34934 6.04157 1.62563C5.72143 0.706345 5.39743 0.33606 4.53471 0.33606H1.15714C0.192857 0.33606 0 0.782202 0 1.27463C0 2.15149 1.14429 6.50749 5.32929 12.2688C8.11929 16.2031 12.0471 18.3361 15.6253 18.3361C17.7711 18.3361 18.036 17.8629 18.036 17.0465V14.0726C18.036 13.1251 18.2391 12.9361 18.9193 12.9361C19.4207 12.9361 20.2783 13.1829 22.2814 15.0793C24.57 17.3281 24.9467 18.3361 26.235 18.3361H29.61C30.5743 18.3361 31.0577 17.8629 30.78 16.9269C30.474 15.9961 29.3811 14.6448 27.9321 13.0415C27.1453 12.1286 25.965 11.1451 25.6063 10.6526C25.1061 10.0213 25.2489 9.73977 25.6063 9.17792C25.6063 9.17792 29.7206 3.48735 30.1487 1.55492H30.15Z"/>
</svg>

<svg viewBox="0 0 31 19" fill="none" xmlns="http://www.w3.org/2000/svg"><path fill="currentColor" fill-rule="evenodd" clip-rule="evenodd" d="M30.15 1.555c.213-.702 0-1.219-1.022-1.219h-3.375c-.859 0-1.255.446-1.47.939 0 0-1.716 4.109-4.147 6.778-.787.774-1.145 1.02-1.574 1.02-.215 0-.538-.246-.538-.95V1.556c0-.844-.236-1.219-.951-1.219h-5.307c-.537 0-.86.39-.86.762 0 .799 1.217.984 1.342 3.231v4.884c0 1.07-.197 1.265-.626 1.265-1.145 0-3.928-4.129-5.58-8.852-.32-.92-.645-1.29-1.507-1.29H1.157C.193.336 0 .782 0 1.275c0 .876 1.144 5.232 5.33 10.994 2.79 3.934 6.717 6.067 10.295 6.067 2.146 0 2.411-.473 2.411-1.29v-2.973c0-.948.203-1.137.883-1.137.502 0 1.36.247 3.362 2.143 2.289 2.25 2.666 3.257 3.954 3.257h3.375c.964 0 1.448-.473 1.17-1.41-.306-.93-1.399-2.281-2.848-3.884-.787-.913-1.967-1.897-2.326-2.39-.5-.63-.357-.912 0-1.474 0 0 4.115-5.69 4.543-7.623h.001z"/></svg>
